X: 14849
T: Garrett Barry's
R: jig
M: 6/8
K: Ddorian
DCD G3|AGA c2A|dcA d2f|fed cAG|
~F3G3|AGA cde|dcA GEA|1 D>ED A,3:|2 D>ED D3||
dcA d2e|f/g/ag f2e|dcA c2d|egc ecA|
dcA d2e|1 f/g/ag f2e|dcA GEA|D>ED D3||
[2 fdA Gce|dcA GEA|D>ED A3,||

